X:9
T:Denis Delaney
C:anon.
O:Ireland
B:Francis O'Neill: The Dance Music of Ireland no. 7
R:Double jig
Z:Transcribed by Frank Nordberg - http://www.musicaviva.com
%http://www.musicaviva.com/abc/oneill100.abc
M:6/8
L:1/8
Q:3/8=128
K:G
(d/c/)|BAG GBG|GBG A>Bc|BAG GBG|{d}cBA Adc|\
BAG GBG|GBG A>Bc|BAG dBG|cAF G2:|
c|Bcd def|gfe fed|dBG gdB|cAF Adc|Bcd def|gfe fed|dBG gdB| cAF G2:|
(B/c/)|dBG dBG|dBG ABc|dBG dBG|cAF A2 d/c/|\
Bcd def|gfe fed|dBG gdB|cAFG2:|

